www/assets/icons/switch_access_shortcut.svg

<svg xmlns="http://www.w3.org/2000/svg" width="24" height="24" viewBox="0 0 24 24" fill='currentColor'><path d="M8.06 8.94 6 8l2.06-.94L9 5l.94 2.06L12 8l-2.06.94L9 11zM9 21l.94-2.06L12 18l-2.06-.94L9 15l-.94 2.06L6 18l2.06.94zm-3.63-8.63L4 13l1.37.63L6 15l.63-1.37L8 13l-1.37-.63L6 11zM13 12c0-2.73 1.08-5.27 2.75-7.25L13 2h7v7l-2.82-2.82C15.84 7.82 15 9.88 15 12c0 3.32 2.1 6.36 5 7.82V22c-4.09-1.59-7-5.65-7-10"/></svg>

<svg width="24" height="24" viewBox="0 0 24 24" xmlns="http://www.w3.org/2000/svg" fill='currentColor'><path d="M8.06 8.94L6 8L8.06 7.06L9 5L9.94 7.06L12 8L9.94 8.94L9 11L8.06 8.94ZM9 21L9.94 18.94L12 18L9.94 17.06L9 15L8.06 17.06L6 18L8.06 18.94L9 21ZM5.37 12.37L4 13L5.37 13.63L6 15L6.63 13.63L8 13L6.63 12.37L6 11L5.37 12.37ZM13 12C13 9.27 14.08 6.73 15.75 4.75L13 2H20V9L17.18 6.18C15.84 7.82 15 9.88 15 12C15 15.32 17.1 18.36 20 19.82V22C15.91 20.41 13 16.35 13 12Z"/></svg>
